X: 2
T: Drag Her Round The Road/The Pullet
R: reel
M: 4/4
L: 1/8
Z: Contributed 2017-09-23 05:04:12 by Florence Fahy flo_fahy@hotmail.com
K: Emin
GA|BEED E2GE|EDB,D DEGA|BEED E2DE|GABG A2GA|
BEED E2GE|EDB,E DEGA|BEEd E2DE|GABG A2 B||
G2GF GBdB|cBAB cded|B2BA GBde|dBGB AGEF|
G2GF GBdB|cBAB cdef|gedB c2ge| dBGB A2||


